static/img/icons-counter-do.svg

<svg width="240" height="240" viewBox="0 0 240 240" fill="none" xmlns="http://www.w3.org/2000/svg"><path fill="#fff" d="M0 0h240v240H0z"/><path stroke="#DFDFDF" d="M39.5 39.5h160v160h-160z"/><path d="M49.5 39.5v160m10-160v160m10-160v160m10-160v160m10-160v160m10-160v160m10-160v160m10-160v160m10-160v160m10-160v160m10-160v160m10-160v160m10-160v160m10-160v160m10-160v160m10-150h-160m160 10h-160m160 10h-160m160 10h-160m160 10h-160m160 10h-160m160 10h-160m160 10h-160m160 10h-160m160 10h-160m160 10h-160m160 10h-160m160 10h-160m160 10h-160m160 10h-160" stroke="#DFDFDF" stroke-linecap="square"/><path fill-rule="evenodd" clip-rule="evenodd" d="M211 39c5.523 0 10-4.477 10-10s-4.477-10-10-10-10 4.477-10 10 4.477 10 10 10Z" fill="#17AA55"/><path d="m207 29.069 2.981 2.98 6.05-6.049" stroke="#fff" stroke-width="2" stroke-linecap="round"/><path fill-rule="evenodd" clip-rule="evenodd" d="m50 149.484 94.697-94.697c7.716-7.716 20.226-7.716 27.942 0l11.574 11.574c7.716 7.716 7.716 20.226 0 27.942L89.516 189H50v-39.516Zm14.818 24.698v-18.56L136.74 83.7l18.56 18.56-71.922 71.922h-18.56Zm100.96-82.4 7.957-7.957a4.94 4.94 0 0 0 0-6.986l-11.574-11.574a4.94 4.94 0 0 0-6.985 0l-7.958 7.957 18.56 18.56Z" fill="#6E49CB" fill-opacity=".3" stroke="#6E49CB"/></svg>

<svg width="240" height="240" viewBox="0 0 240 240" xmlns="http://www.w3.org/2000/svg"><g fill="none" fill-rule="evenodd"><path fill="#FFF" d="M0 0h240v240H0z"/><g stroke="#DFDFDF"><path d="M39.5 39.5h160v160h-160z"/><g stroke-linecap="square"><path d="M49.5 39.5v160M59.5 39.5v160M69.5 39.5v160M79.5 39.5v160M89.5 39.5v160M99.5 39.5v160M109.5 39.5v160M119.5 39.5v160M129.5 39.5v160M139.5 39.5v160M149.5 39.5v160M159.5 39.5v160M169.5 39.5v160M179.5 39.5v160M189.5 39.5v160M199.5 49.5h-160M199.5 59.5h-160M199.5 69.5h-160M199.5 79.5h-160M199.5 89.5h-160M199.5 99.5h-160M199.5 109.5h-160M199.5 119.5h-160M199.5 129.5h-160M199.5 139.5h-160M199.5 149.5h-160M199.5 159.5h-160M199.5 169.5h-160M199.5 179.5h-160M199.5 189.5h-160"/></g></g><g transform="translate(201 19)"><circle fill="#17AA55" cx="10" cy="10" r="10"/><path stroke="#FFF" stroke-width="2" stroke-linecap="round" d="M6 10.069l2.98 2.98L15.03 7"/></g><path d="M89.5 189.5h-40v-40l94.14-94.142c7.812-7.81 20.475-7.81 28.285 0l11.717 11.716c7.81 7.81 7.81 20.474 0 28.285L89.5 189.5zm-16.248-35.43l11.679 11.678 59.888-59.888-11.679-11.68-59.888 59.89zm96.39-72.788l-11.906 11.906-11.924-11.924 11.906-11.906 11.924 11.924z" stroke="#6E49CB" fill-opacity=".3" fill="#6E49CB"/></g></svg>
